**kern	**kern	**kern
*staff3	*staff2	*staff1
*tb16	*tb16	*tb16
=1-	=1-	=1-
*clefF4	*clefG2	*clefG2
*k[b-e-]	*k[b-e-]	*k[b-e-]
*M6/8	*M6/8	*M6/8
8r	8r	8d/
8r	8r	8r
8r	8r	8r
8r	8r	8r
8r	8r	8r
8r	8r	8r
=2	=2	=2
2.GG/	8B-/L	8g/
.	8d/	8f#/
.	8g/J	8g/
.	(8c/L	8b-\
.	8c/) 8e-/	8a/
.	8B-/J 8d/J	8g/
=3	=3	=3
4.D\	8B-/L 8d/L	8g/
.	8A/	8f#/
.	8G/J	8g/
*	*^	*
8F\L	8a/L	4.d\	4a/
8E-\	8g/J	.	.
8D\J	8f#/J	.	8a/
*	*v	*v	*
=4	=4	=4
!!linebreak:original
4G\	4d/ 4g/	8b-\
.	.	8a/
8r	8r	8g/
4C/	4e-/ 4g/	8dd\
.	.	8cc\
8r	8r	8b-\
=5	=5	=5
8r	8r	4.b-\
8D/L	8d/L 8g/L	.
8C#/J	8en/J	.
8D/L	(8d/L 8f#/L	4a/
8C#/	8en/)	.
8Cn/J	8e-/J	8a/
=6	=6	=6
2.BB-/	8d/L	8b-\
.	8f/	8a/
.	8b-/J	8b-\
.	8e-/L 8g/L	(8dd\
.	8g-/	8cc\)
.	8d/J 8f/J	8b-\
=7	=7	=7
!!linebreak:original
[4.AA/	(4.c/ 4.e-/ 4.g/	8ee-\
.	.	8cc\
.	.	16a/LL
.	.	16g/JJ
4AA/]	4c/) 4d/ 4f#/	4f#/
8BB-/	8d/ 8g/	8dd\
=8	=8	=8
4.C/	4.e-/ 4.g/	8dd\L
.	.	8cc\J
.	.	8b-\
8C#\L 8G\L	4.en/ 4.g/	8b-/L
8A\	.	8a/J
8B-\J	.	8g/
=9	=9	=9
4D\ 4B-\	4d/ 4g/	8g/
.	.	8d/
8F#\ 8c\	16d/LL 16b-/LL	4r
.	16a/JJ	.
4G\ 4B-\	4g/	.
.	.	8r
8GG/	8g/ 8bn/	8ff\
=10	=10	=10
4C/	4g/ 4cc/	4ee-\
8D\	8f#/ 8a/	8dd\
4E-\	4en/ 4g/	4cc#\
8F#\	8e-/ 8a/	8ccn\
=11	=11	=11
!!linebreak:original
4.G\	8d/L 8a/L	(4.b-\
.	8g/	.
.	8f/J	.
4.C/	4.c/ 4.e-/	8a/L
.	.	8b-/J)
.	.	8cc\
=12	=12	=12
4.D\	8c/L 8e-/L	[4.g/
.	8B-/ 8d/	.
.	(8c#/J	.
4D\	4A/ 4cn/	8g/L]
.	.	8a/J
8D\	8A/) 8c/	8f#/
=13	=13	=13
(4.GG/ 4.D/	4.A/ 4.c/	4.f#/
8G\) 8Bn\	4G/ 4B-/ 4e-/ 4b-/	4g/
8r	.	.
8r	8g/ 8gg/	8r
=14	=14	=14
4G\ 4d\	4g\ 4ff\	2.r
8G\ 8c\	8g\ 8ee-\	.
4G\ 4B-\	4g\ 4dd\	.
8G\ 8A\	8g/ 8cc#/	.
=15	=15	=15
8D\L 8B-\L	8g/L 8dd/L	2.r
8D\ 8d\	8g/ 8b-/	.
8D\J 8c\J	8f#/J 8a/J	.
4G\ 4B-\	4g/	.
8r	8r	.
==	==	==
*-	*-	*-
